assets/miro/mono.svg

<svg viewBox="0 0 24 24" xmlns="http://www.w3.org/2000/svg"><path d="m17.392 0h-3.492l3.1 4.808-6.556-4.808h-3.495l3.102 6.3-6.557-6.3h-3.494l3.05 8.131-3.05 15.869h3.494l6.556-17.015-3.101 17.015h3.494l6.557-18.506-3.101 18.506h3.493l6.608-20.328z"/></svg>

<svg xmlns="http://www.w3.org/2000/svg" viewBox="0 0 24 24"><path d="M17.392 0H13.9L17 4.808 10.444 0H6.949l3.102 6.3L3.494 0H0l3.05 8.131L0 24h3.494L10.05 6.985 6.949 24h3.494L17 5.494 13.899 24h3.493L24 3.672z"/></svg>
